svg/500/sharp/body_fat-fill.svg

<svg xmlns="http://www.w3.org/2000/svg" width="48" height="48" viewBox="0 -960 960 960"><path d="M844.065-334.696h-40v271.392L-28.326-478.24l832.391-415.457v269.631h40v68.13h-148.13v-68.13h40v-157.239L525.304-677.609q31.044 43.761 49.066 93.685Q592.391-534 592.391-480q0 56-18.521 105.924-18.522 49.924-50.566 94.446l211.631 104.934v-160h-39v-69.369h148.13v69.369ZM461.13-311.218q27.566-36.565 45.229-79.152T524.022-480q0-47.043-17.163-88.13-17.163-41.087-44.968-77.892L124.087-478.761 461.13-311.218Z"/></svg>

<svg xmlns="http://www.w3.org/2000/svg" width="48" height="48" viewBox="0 -960 960 960"><path d="M844.07-334.7h-40v271.4l-832.4-414.94 832.4-415.46v269.63h40v68.14H695.93v-68.14h40V-781.3L525.3-677.61q31.05 43.76 49.07 93.69Q592.39-534 592.39-480q0 56-18.52 105.92-18.52 49.93-50.57 94.45L734.93-174.7v-160h-39v-69.37h148.14v69.37Zm-382.94 23.48q27.57-36.56 45.23-79.15 17.66-42.59 17.66-89.63 0-47.04-17.16-88.13-17.16-41.09-44.97-77.89l-337.8 167.26 337.04 167.54Z"/></svg>
